S/stargaze.zone icon old.svg

<svg  viewBox="0 0 36 36"  xmlns="http://www.w3.org/2000/svg">
 <defs>
  <lineargradient id="stargaze_svg__a" x1="0%" x2="100%" y1="0%" y2="100%">
   <stop offset="0%" stop-color="#943A1A">
   </stop>
   <stop offset="14.504%" stop-color="#943A1A">
   </stop>
   <stop offset="32.488%" stop-color="#D9AF43">
   </stop>
   <stop offset="48.736%" stop-color="#C5DF8A">
   </stop>
   <stop offset="69.222%" stop-color="#4C92D3">
   </stop>
   <stop offset="84.447%" stop-color="#13358E">
   </stop>
   <stop offset="100%" stop-color="#13358E">
   </stop>
  </lineargradient>
 </defs>
 <path d="M2937 1047c9.941 0 18 8.059 18 18s-8.059 18-18 18-18-8.059-18-18 8.059-18 18-18Zm0 2c-8.837 0-16 7.163-16 16s7.163 16 16 16 16-7.163 16-16-7.163-16-16-16Zm-.012 4.472c.372 0 .7.245.81.605l2.293 7.18h7.37a.867.867 0 0 1 .814.614.883.883 0 0 1-.323.975l-5.986 4.325 2.22 7.157a.873.873 0 0 1-.303.976.847.847 0 0 1-1.01.002l-5.885-4.491-5.873 4.489a.847.847 0 0 1-1.01-.007.873.873 0 0 1-.3-.976l2.205-7.14-5.963-4.336a.883.883 0 0 1-.321-.975.867.867 0 0 1 .813-.614h7.346l2.292-7.18a.85.85 0 0 1 .81-.604Z" fill="url(#stargaze_svg__a)" fill-rule="nonzero" transform="translate(-2919 -1047)">
 </path>
</svg>

<?xml version="1.0" ?>
<svg xmlns="http://www.w3.org/2000/svg" viewBox="0 0 36 36">
	<style>
		.cls0 { fill: url(#stargaze_svg__a); }
	</style>
	<defs>
		<linearGradient id="stargaze_svg__a" x1="0%" x2="100%" y1="0%" y2="100%">
			<stop offset="0%" stop-color="#943A1A"/>
			<stop offset="14.504%" stop-color="#943A1A"/>
			<stop offset="32.488%" stop-color="#D9AF43"/>
			<stop offset="48.736%" stop-color="#C5DF8A"/>
			<stop offset="69.222%" stop-color="#4C92D3"/>
			<stop offset="84.447%" stop-color="#13358E"/>
			<stop offset="100%" stop-color="#13358E"/>
		</linearGradient>
	</defs>
	<path d="M 2937.0,1047.0 C 2946.941,1047.0 2955.0,1055.059 2955.0,1065.0 C 2955.0,1074.941 2946.941,1083.0 2937.0,1083.0 C 2927.059,1083.0 2919.0,1074.941 2919.0,1065.0 C 2919.0,1055.059 2927.059,1047.0 2937.0,1047.0 M 2937.0,1049.0 C 2928.163,1049.0 2921.0,1056.163 2921.0,1065.0 C 2921.0,1073.837 2928.163,1081.0 2937.0,1081.0 C 2945.837,1081.0 2953.0,1073.837 2953.0,1065.0 C 2953.0,1056.163 2945.837,1049.0 2937.0,1049.0 M 2936.988,1053.472 C 2937.36,1053.472 2937.688,1053.717 2937.798,1054.077 L 2940.091,1061.257 L 2947.461,1061.257 A 0.867,0.867 0.0 0,1 2948.275,1061.871 A 0.883,0.883 0.0 0,1 2947.952,1062.846 L 2941.966,1067.171 L 2944.186,1074.328 A 0.873,0.873 0.0 0,1 2943.883,1075.304 A 0.847,0.847 0.0 0,1 2942.873,1075.306 L 2936.988,1070.815 L 2931.115,1075.304 A 0.847,0.847 0.0 0,1 2930.105,1075.297 A 0.873,0.873 0.0 0,1 2929.805,1074.321 L 2932.01,1067.181 L 2926.047,1062.845 A 0.883,0.883 0.0 0,1 2925.726,1061.87 A 0.867,0.867 0.0 0,1 2926.539,1061.256 L 2933.885,1061.256 L 2936.177,1054.076 A 0.85,0.85 0.0 0,1 2936.987,1053.472 L 2936.988,1053.472" fill-rule="nonzero" transform="translate(-2919 -1047)" class="cls0"/>
</svg>
